X: 0
T: The Eel Pot Tavern
P: piffero primo a0781
O: Roy Watrous
%R: jig
S: http://ancients.sudburymuster.org/mus/sng/pdf/eelpotC0.pdf
S: http://ancients.sudburymuster.org/mus/med/pdf/eelpotstonesC0.pdf
Z: 2020 John Chambers <jc:trillian.mit.edu>
M: 6/8
L: 1/8
K: Ador
E |\
A2A ABc | B2A G2E | ABc BAG | e3- e2f |\
g2g gfe | d2B GAB | cBA G2E | A3- A2 :|
|: z |\
e3  a3  | gfe d2B | efg bag | a3- a2b |\
g2g gfe | d2B GAB | cBA G2E | A3- A2 :|


